X: 1
T: Missa Da pacem / Kyrie
N: Derived from Mou1020a-Missa_Da_pacem-Kyrie.krn
%%abc-version 2.0
%%abcx-abcm2ps-target-version 5.9.1 (29 Sep 2008)
%%abc-creator hum2abc beta
%%abcx-conversion-date 2019/02/17 07:22:03
%%abc-edited-by Jesse Rodin
%%abc-edited-by Jesse Rodin; Victoria Chang 2011/04/02
%%abcx-initial-encoding-date 2011/01/01/
%%humdrum-veritas 3768532971
%%humdrum-veritas-data 3686872335
%%linebreak <none>
%%barnumbers 0
L: 1/4
M: 3/1
Q: 1/2=120
%%staves [1 2 3 4]
V: 1 clef=treble
V: 2 clef=treble-8
V: 3 clef=treble-8
V: 4 clef=bass
K: F
[V:1] z12 | 
[V:2] G8F4 | 
[V:3] z12 | 
[V:4] z12 | 
[V:1] G8F4 | 
[V:2] G3AB2G2A4 | 
[V:3] z12 | 
[V:4] z12 | 
[V:1] G3AB2G2A4 | 
[V:2] GABcd2e2f2d2- | 
[V:3] z12 | 
[V:4] G,8F,4 | 
[V:1] G8c4 | 
[V:2] d2e2d2g4^f2 | 
[V:3] z12 | 
[V:4] G,3A,B,2G,2A,4 | 
[V:1] B3AB2G4c2 | 
[V:2] g4gfede4 | 
[V:3] G12 | 
[V:4] G,4z4C,4 | 
[V:1] A2B4AGF4 | 
[V:2] z2d4cBA4 | 
[V:3] F12 | 
[V:4] D,4B,,2C,2D,4 | 
[V:1] z2B3AGFE4 | 
[V:2] G4B4c4 | 
[V:3] G12 | 
[V:4] _E,6D,2C,4 | 
[V:1] D4D2B,CDEFG | 
[V:2] F4G4z4 | 
[V:3] B12 | 
[V:4] B,,4G,,2G,3F,E,D, | 
[V:1] ABc3BB4A2 | 
[V:2] z4g4f3e | 
[V:3] c12 | 
[V:4] C,4E,4F,4 | 
[V:1] B4z2G3FD2 | 
[V:2] dcB2F2G2B4 | 
[V:3] B8z4 | 
[V:4] G,3F,D,2_E,3D,B,,2 | 
[V:1] E2F3GA2D4 | 
[V:2] A3G/F/F4G4 | 
[V:3] A8B4 | 
[V:4] C,2D,3C,A,,2G,,4 | 
[V:1] E2A4G4^F2 | 
[V:2] C4c2d2_e2d2 | 
[V:3] c3BG2B2A4 | 
[V:4] z2C,4B,,2C,2D,2 | 
[V:1] G2B4A2F2A2- | 
[V:2] B3cdef4f2 | 
[V:3] G4z2d4c2 | 
[V:4] G,,2G,4F,2D,2F,2- | 
[V:1] A2G2_E2G4F2 | 
[V:2] c2_e4_e2B2d2- | 
[V:3] A2c4B2G2B2- | 
[V:4] F,2_E,2C,2E,4D,2 | 
[V:1] D4F8 | 
[V:2] d2d2A2d2d4- | 
[V:3] B2A2F2B2A4 | 
[V:4] B,,4D,8 | 
[V:1] z2B4A2F2A2- | 
[V:2] d4z2f4f2 | 
[V:3] z4z2d4c2 | 
[V:4] z2G,4F,2D,2F,2- | 
[V:1] A2G2_E2G4F2 | 
[V:2] c2_e4_e2B2d2- | 
[V:3] A2c4B2G2B2- | 
[V:4] F,2_E,2C,2E,4D,2 | 
[V:1] D2E2F2G4^F2 | 
[V:2] d2c2A2d2_e2d2 | 
[V:3] B2A2F2B2A4 | 
[V:4] B,,2C,2D,2B,,2C,2D,2 | 
[V:1] G12- | 
[V:2] B2_e3dd4c2 | 
[V:3] G12- | 
[V:4] _E,3D,C,2B,,2C,4 | 
[V:1] G12 ||  
[V:2] d12 ||  
[V:3] G12 ||  
[V:4] G,,12 ||  
[V:1] [M:2/1]z8 | 
[V:2] [M:2/1]B6AG | 
[V:3] [M:2/1]z8 | 
[V:4] [M:2/1]G,6F,E, | 
[V:1] z4B4- | 
[V:2] F2G4FE | 
[V:3] z8 | 
[V:4] D,2_E,4D,C, | 
[V:1] B2AGF2G2- | 
[V:2] D4z2B2- | 
[V:3] B8 | 
[V:4] B,,3C,D,2G,,2- | 
[V:1] G2FED4 | 
[V:2] B2AGF2G2- | 
[V:3] B8 | 
[V:4] G,,A,,B,,C,D,2G,,2- | 
[V:1] z2B4AG | 
[V:2] G2FED2d2- | 
[V:3] B8 | 
[V:4] G,,2G,,3A,,B,,C, | 
[V:1] F2G4^F2 | 
[V:2] dc_e2d4- | 
[V:3] A8 | 
[V:4] D,2C,2D,4 | 
[V:1] G8 | 
[V:2] d2B3cd2 | 
[V:3] G8 | 
[V:4] G,,4z4 | 
[V:1] z8 | 
[V:2] GABcd2_e2- | 
[V:3] z8 | 
[V:4] G,4G,4- | 
[V:1] G8 | 
[V:2] edd2cBAG | 
[V:3] z8 | 
[V:4] G,2F,2_E,4 | 
[V:1] F4G4- | 
[V:2] A4G2c2- | 
[V:3] z8 | 
[V:4] D,4_E,4- | 
[V:1] G2F2_E4 | 
[V:2] cBB4A2 | 
[V:3] z8 | 
[V:4] E,2D,2C,4 | 
[V:1] D8 | 
[V:2] B2G4F2 | 
[V:3] B8 | 
[V:4] B,,8 | 
[V:1] D4G4 | 
[V:2] G8 | 
[V:3] B8 | 
[V:4] G,,8 | 
[V:1] E4A4 | 
[V:2] C4c4 | 
[V:3] c8 | 
[V:4] A,,8 | 
[V:1] F4B4- | 
[V:2] B2AGF2G2- | 
[V:3] d8 | 
[V:4] B,,8 | 
[V:1] B2A2G4 | 
[V:2] G2c4BA | 
[V:3] c8 | 
[V:4] _E,8 | 
[V:1] F4z4 | 
[V:2] B2c4=B2 | 
[V:3] d8 | 
[V:4] D,8 | 
[V:1] G8 | 
[V:2] c8 | 
[V:3] _e8 | 
[V:4] C,8 | 
[V:1] F4A4 | 
[V:2] z4F4 | 
[V:3] d4d4- | 
[V:4] D,8 | 
[V:1] G6F_E | 
[V:2] G8 | 
[V:3] d2cBc4 | 
[V:4] _E,8 | 
[V:1] F8- | 
[V:2] A4B4 | 
[V:3] d8- | 
[V:4] D,8- | 
[V:1] F8 ||  
[V:2] A8 ||  
[V:3] d8 ||  
[V:4] D,8 ||  
[V:1] [M:3/1]z12 | 
[V:2] [M:3/1]z2d4cBA2B2- | 
[V:3] [M:3/1]z12 | 
[V:4] [M:3/1]D,8D,4 | 
[V:1] z12 | 
[V:2] B2A2B3A/G/F2B2- | 
[V:3] z12 | 
[V:4] C,4B,,4B,,3C, | 
[V:1] z12 | 
[V:2] B2c3BB4A2 | 
[V:3] z12 | 
[V:4] D,2_E,3D,B,,2C,4 | 
[V:1] z2d4cBA2B2- | 
[V:2] Bcdef6d2 | 
[V:3] d8d4 | 
[V:4] B,,4B,,C,D,E,F,2G,2 | 
[V:1] B2A2B3A/G/F2B2- | 
[V:2] g2f2d3ef2d2- | 
[V:3] c4B4B3c | 
[V:4] E,2F,2G,3F,/E,/D,2G,2- | 
[V:1] B2c3BB4A2 | 
[V:2] d2g3fdef4- | 
[V:3] d2_e3dB2c4 | 
[V:4] G,2C,2G,4F,4 | 
[V:1] B8z4 | 
[V:2] f4z4z4 | 
[V:3] B4z2B2B4 | 
[V:4] B,,4z2B,,3C,D,E, | 
[V:1] z12 | 
[V:2] z12 | 
[V:3] A4B4c3B | 
[V:4] F,E,D,C,D,4C,4 | 
[V:1] z12 | 
[V:2] z12 | 
[V:3] G2A3GG4^F2 | 
[V:4] B,,2A,,2B,,2C,2A,,4 | 
[V:1] z4z2B2B4 | 
[V:2] z4B4Bcde | 
[V:3] G8z4 | 
[V:4] G,,12 | 
[V:1] A4B4c3B | 
[V:2] fedcd4c4 | 
[V:3] z12 | 
[V:4] z12 | 
[V:1] G2A3GG4^F2 | 
[V:2] B2A2B2c2A4 | 
[V:3] z12 | 
[V:4] z12 | 
[V:1] G8z4 | 
[V:2] G3ABcdef2ed | 
[V:3] z4z2B2B4 | 
[V:4] z2G,,3A,,B,,C,D,2E,2 | 
[V:1] F4D4E3F | 
[V:2] c4B2G4g2- | 
[V:3] A4B4c3B | 
[V:4] F,4G,4C,3D, | 
[V:1] GEA3GG4^F2 | 
[V:2] g2f2d2e2d4 | 
[V:3] G2A2B2c2A4 | 
[V:4] E,2F,2G,2C,2D,4 | 
[V:1] G2B2A2F2G2A2 | 
[V:2] z2d2f4_e2c2 | 
[V:3] z4z2d2c2A2 | 
[V:4] z2G,2F,2D,2_E,2F,2 | 
[V:1] G3EF2G2F2D2 | 
[V:2] _e4d2B2d2f2- | 
[V:3] B2c2B2G2A2B2 | 
[V:4] _E,2C,2D,2E,2D,2B,,2 | 
[V:1] E2A4G3^FFE | 
[V:2] fed3ccBd4 | 
[V:3] A2F2G4A4 | 
[V:4] C,2D,2_E,4D,4 | 
[V:1] G2B2A2F2G2A2 | 
[V:2] z2d2f4_e2c2 | 
[V:3] G4z2d2c2A2 | 
[V:4] z2G,2F,2D,2_E,2F,2 | 
[V:1] G3EF2G2F2D2 | 
[V:2] _e4d2B2d2f2- | 
[V:3] B2c2B2G2A2B2 | 
[V:4] _E,2C,2D,2E,2D,2B,,2 | 
[V:1] E2A4G3^FFE | 
[V:2] fed3ccBd4- | 
[V:3] A2F2G4A4 | 
[V:4] C,2D,2_E,4D,4 | 
[V:1] G12 |]  
[V:2] d12 |]  
[V:3] G12 |]  
[V:4] G,,12 |]  



